X: 7
T:Blow the Wind Southerly
% Nottingham Music Database
S:Kevin Briggs
Y:AAB
M:3/4
L:1/4
K:D
P:A
|:A|"D"f3/2e/2d|"D"AFA|"G"BGB|"D"AFA|"D"f3/2e/2d|"D"AFA|"Em"Be"A"c|"D"d2:|
P:B
|:A|"D"f2a|"A"e2a|"Bm"d3/2e/2d|"A7"cBA|"D"f2a|"A"e2a|"E7"^gfg|"A"a2a|
  "G"b2b|"D"a2a|"A"ggg|"D"fed|"D"f3/2e/2d|"Em"Bgf|"A7"edc|"D"d2:|


